img/comment-outlined.svg

<svg fill="none" height="24" viewBox="0 0 24 24" width="24" xmlns="http://www.w3.org/2000/svg"><path d="m21.5986 11.4871v.0032c.0011 1.1954-.3159 2.3727-.9227 3.4187-.8207 1.3462-1.9985 2.4614-3.4162 3.2286-1.4205.7688-3.0291 1.1596-4.6605 1.1302l-.0196-.0001c-1.4039.0053-2.79165-.2825-4.06802-.8428-.19352-.085-.41077-.0991-.61367-.04l-4.91272 1.4322 1.57244-4.1275c.09676-.254.07356-.5381-.06311-.773-.60788-1.0448-.92637-2.2209-.92718-3.4155.03911-1.4829.52035-2.92604 1.38962-4.15582.87162-1.23312 2.09705-2.2 3.53134-2.77949.00826-.00334.01647-.0068.02463-.01038 1.27638-.56034 2.66407-.84816 4.06797-.84283h.0035.5801c2.1073.0168 4.1301.78168 5.6849 2.14232 1.5421 1.34946 2.5164 3.19017 2.7505 5.1743z" stroke="#1c8aa9" stroke-linecap="round" stroke-linejoin="round" stroke-width="1.8"/></svg>

<svg width="24" height="24" viewBox="0 0 24 24" fill="none" xmlns="http://www.w3.org/2000/svg">
<path d="M21.5986 11.4871L21.5986 11.4903C21.5997 12.6857 21.2827 13.863 20.6759 14.909C19.8552 16.2552 18.6774 17.3704 17.2597 18.1376C15.8392 18.9064 14.2306 19.2972 12.5992 19.2678L12.5796 19.2677C11.1757 19.273 9.78795 18.9852 8.51158 18.4249C8.31806 18.3399 8.10081 18.3258 7.89791 18.3849L2.98519 19.8171L4.55763 15.6896C4.65439 15.4356 4.63119 15.1515 4.49452 14.9166C3.88664 13.8718 3.56815 12.6957 3.56734 11.5011C3.60645 10.0182 4.08769 8.57506 4.95696 7.34528C5.82858 6.11216 7.05401 5.14528 8.4883 4.56579C8.49656 4.56245 8.50477 4.55899 8.51293 4.55541C9.78931 3.99507 11.177 3.70725 12.5809 3.71258H12.5844H13.1645C15.2718 3.72938 17.2946 4.49426 18.8494 5.8549C20.3915 7.20436 21.3658 9.04507 21.5999 11.0292L21.5986 11.4871Z" stroke="#1C8AA9" stroke-width="1.8" stroke-linecap="round" stroke-linejoin="round"/>
</svg>
